!!!COM: Palestrina, Giovanni Perluigi da
!!!OPR: Vestiva i colli
!!!OTL: Gloria
**kern	**kern	**kern	**kern	**kern
*Ibass	*Itenor	*Itenor	*Icalto	*Icant
!Bassus	!Tenor 2	!Tenor 1	!Altus	!Cantus
*clefF4	*clefGv2	*clefGv2	*clefG2	*clefG2
*k[]	*k[]	*k[]	*k[]	*k[]
*A:aeo	*A:aeo	*A:aeo	*A:aeo	*A:aeo
*M4/2	*M4/2	*M4/2	*M4/2	*M4/2
=1	=1	=1	=1	=1
0r	0r	0r	1r	2.a
.	.	.	.	4a
.	.	.	2.d	2dd
.	.	.	.	2dd
.	.	.	4d	.
=2	=2	=2	=2	=2
0r	0r	1r	2a	4cc
.	.	.	.	4b
.	.	.	2a	4cc
.	.	.	.	4dd
.	.	2.A	2cc	2ee
.	.	.	2cc	2ee
.	.	4A	.	.
=3	=3	=3	=3	=3
0r	0r	2d	2b	2dd
.	.	2d	2a	2ff
.	.	4c	2.cc	2.ee
.	.	4B	.	.
.	.	4c	.	.
.	.	4d	8b	8dd
.	.	.	8a	8cc
=4	=4	=4	=4	=4
0r	1r	1.e	4g#	4b
.	.	.	2a	4a
.	.	.	.	2b
.	.	.	4g#	.
.	2.A	.	[1a	2cc
.	.	2c	.	[2ee
.	4A	.	.	.
=5	=5	=5	=5	=5
2.D	2d	2f	0a]	2ee]
.	2d	2f	.	2dd
4D	.	.	.	.
2A	4c	4e	.	[1ee
.	4B	4d	.	.
2A	4c	4c	.	.
.	4d	4B	.	.
=6	=6	=6	=6	=6
2c	1e	1A	2r	1ee]
2c	.	.	1a	.
2B	1d	1r	.	2r
2B	.	.	2g#	2dd
=7	=7	=7	=7	=7
2A	1f	0r	1a	2cc
1d	.	.	.	2dd
.	1e	.	2A	1ee
2c#	.	.	4a	.
.	.	.	4g	.
=8	=8	=8	=8	=8
2d	[0a	2r	4f	1ff
.	.	.	4e	.
2D	.	1d	2d	.
2.A	.	.	1e	1ee
.	.	2c#	.	.
4G	.	.	.	.
=9	=9	=9	=9	=9
4F	1a]	2.d	1A	2r
4E	.	.	.	.
2D	.	.	.	1dd
.	.	4e	.	.
1A	1r	2f	2r	.
.	.	2e	[2a	2cc#
=10	=10	=10	=10	=10
0r	2r	4d	2a]	2.dd
.	.	4c	.	.
.	1d	2B	2g#	.
.	.	.	.	4ee
.	.	1A	2.a	2ff
.	2c#	.	.	2ee
.	.	.	4cc	.
=11	=11	=11	=11	=11
0r	2d	0r	4b	4dd
.	.	.	4a	4cc
.	2f	.	1a	4cc
.	.	.	.	8b
.	.	.	.	8a
.	2.e	.	.	1b
.	.	.	2g#	.
.	4d	.	.	.
=12	=12	=12	=12	=12
2r	2c	2r	1a	0a
2d	2d	2f	.	.
2d	1A	2f	1r	.
2c#	.	2e	.	.
=13	=13	=13	=13	=13
1d	1a	2.f	2r	2r
.	.	.	2f	2dd
.	.	4g	.	.
2.A	1r	2a	2f	2dd
.	.	[2A	2e	2cc#
4A	.	.	.	.
=14	=14	=14	=14	=14
2F	1r	2A]	4f	4dd
.	.	.	4g	4ee
2D	.	2d	4a	4ff
.	.	.	4b	4dd
1A	2r	2c	2cc	1ee
.	2a	2A	2cc	.
=15	=15	=15	=15	=15
1E	2a	1e	2cc	2.ee
.	2g#	.	2.b	.
.	.	.	.	4ee
1r	1a	1A	.	2cc
.	.	.	4a	.
.	.	.	[2a	2a
=16	=16	=16	=16	=16
0r	2.e	1r	4a]	1b
.	.	.	4g	.
.	.	.	2g	.
.	4e	.	.	.
.	2c	2r	2e	1a
.	2A	[2a	2f	.
=17	=17	=17	=17	=17
0r	1B	2a]	1d	2r
.	.	2g#	.	1dd
.	1A	2a	1e	.
.	.	2a	.	2cc#
=18	=18	=18	=18	=18
2r	1d	2.f	1.a	2.dd
1d	.	.	.	.
.	.	4e	.	4ee
.	1r	2d	.	2ff
2c#	.	2e	2a	2ee
=19	=19	=19	=19	=19
2d	2r	2f	2a	2dd
2D	1d	2d	2a	2ff
2.A	.	2e	1a	2ee
.	2c#	2e	.	2ee
4A	.	.	.	.
=20	=20	=20	=20	=20
2F	2.d	2.f	2r	2dd
2D	.	.	2a	2dd
.	4e	4g	.	.
2A	2f	1a	2a	4cc
.	.	.	.	4dd
2A	2e	.	2cc	4ee
.	.	.	.	4cc
=21	=21	=21	=21	=21
1D	2d	1r	4b	4dd
.	.	.	4a	4cc
.	2f	.	1a	4b
.	.	.	.	4a
1r	2e	2r	.	1b
.	2e	[2e	2g#	.
=22	=22	=22	=22	=22
2r	4A	2e]	1a	2.a
.	4B	.	.	.
1A	4c	2e	.	.
.	4d	.	.	4b
.	2e	1c	2r	[1cc
2A	2e	.	[2a	.
=23	=23	=23	=23	=23
1F	1A	1f	2a]	1cc]
.	.	.	2a	.
1c	2r	2e	1g	2r
.	[2c	[2e	.	[2ee
=24	=24	=24	=24	=24
2C	2c]	4e]	1.cc	2ee]
.	.	4f	.	.
2C	2c	4g	.	2ee
.	.	4e	.	.
2.F	1A	2.f	.	1cc
.	.	.	2a	.
4E	.	4g	.	.
=25	=25	=25	=25	=25
1.D	1d	1a	2.f	1ff
.	.	.	4g	.
.	2d	[1A	1a	2ff
2C#	2e	.	.	2ee
=26	=26	=26	=26	=26
1D	1f	1A]	1a	1dd
1AA	1e	1A	[1a	2.cc#
.	.	.	.	4dd
=27	=27	=27	=27	=27
2.A	2.c	2r	1a]	1ee
.	.	2.e	.	.
4A	4c	.	.	.
2c	2A	.	1r	1r
.	.	4e	.	.
2B	2G	2g	.	.
=28	=28	=28	=28	=28
2A	1c	2f	2.a	0r
1A	.	4e	.	.
.	.	4d	4a	.
.	2A	2e	2cc	.
2G	2B	[2e	2b	.
=29	=29	=29	=29	=29
1F	2c	2e]	1.a	1r
.	4B	2d	.	.
.	4A	.	.	.
1E	1e	2c	.	2.ee
.	.	4B	2g	.
.	.	4c	.	4ee
=30	=30	=30	=30	=30
0r	0a	2d	2f	2ff
.	.	2e	2c	2ee
.	.	2.f	2.d	1dd
.	.	8e	8c	.
.	.	8d	8B	.
=31	=31	=31	=31	=31
0r	2r	1e	4A	2dd
.	.	.	4B	.
.	2.a	.	4c	2cc
.	.	.	4d	.
.	.	2r	2.e	1b
.	8g#	.	.	.
.	8f#	.	.	.
.	2g#	[2e	.	.
.	.	.	4d	.
=32	=32	=32	=32	=32
2.A	1a	4e]	1c	1a
.	.	4e	.	.
.	.	2e	.	.
4A	.	.	.	.
2A	1r	2f	1A	1r
2c	.	2e	.	.
=33	=33	=33	=33	=33
2B	1r	2d	0r	0r
1A	.	2c	.	.
.	2r	1B	.	.
2G#	[2e	.	.	.
=34	=34	=34	=34	=34
2.A	4e]	1.c	2.a	0r
.	4e	.	.	.
.	2e	.	.	.
4G	.	.	4a	.
2F	2f	.	2a	.
2C	2e	[2g	2cc	.
=35	=35	=35	=35	=35
1D	2d	2g]	2b	1r
.	2c	2f	1a	.
1E	1B	1e	.	2r
.	.	.	2g	[2ee
=36	=36	=36	=36	=36
1A	1A	1e	2.cc	4ee]
.	.	.	.	4ee
.	.	.	.	2ee
.	.	.	4b	.
1r	2d	1r	2.a	2ff
.	2c#	.	.	2ee
.	.	.	4g	.
=37	=37	=37	=37	=37
0r	1d	1r	4f	2dd
.	.	.	4d	.
.	.	.	1a	2cc
.	1e	2r	.	1b
.	.	[2e	2g#	.
=38	=38	=38	=38	=38
2r	4A	2e]	1a	2.a
.	4B	.	.	.
1A	4c	2e	.	.
.	4d	.	.	4b
.	1e	4c	2r	[1cc
.	.	4d	.	.
2A	.	4e	[2a	.
.	.	4c	.	.
=39	=39	=39	=39	=39
4F	1r	1f	2a]	0cc]
4G	.	.	.	.
4A	.	.	2a	.
4B	.	.	.	.
1c	2r	2.e	[1g	.
.	[2e	.	.	.
.	.	4f	.	.
=40	=40	=40	=40	=40
0C	2e]	0g	2g]	2r
.	2e	.	4c	1ee
.	.	.	4d	.
.	4c	.	4e	.
.	4d	.	4f	.
.	4e	.	4g	2ee
.	4f	.	4a	.
=41	=41	=41	=41	=41
1r	1g	1G	2b	1dd
.	.	.	2b	.
1C	1e	2.c	2cc	2ee
.	.	.	2g	[2cc
.	.	4B	.	.
=42	=42	=42	=42	=42
2.F	1c	2A	0a	2cc]
.	.	2A	.	2.ff
4E	.	.	.	.
[1D	2.f	2.d	.	.
.	.	.	.	4ee
.	.	.	.	2dd
.	4e	8c	.	.
.	.	8B	.	.
=43	=43	=43	=43	=43
2D]	2d	0A	1a	2ff
2C#	2e	.	.	2.ee
1D	2.f	.	[1a	.
.	.	.	.	4dd
.	.	.	.	[2dd
.	8e	.	.	.
.	8d	.	.	.
=44	=44	=44	=44	=44
1A	1e	2r	2a]	4dd]
.	.	.	.	4cc#
.	.	2.a	2a	4cc#
.	.	.	.	8b
.	.	.	.	8cc#
[1D	1d	.	[1f#	[1dd
.	.	4a	.	.
.	.	2a	.	.
=45	=45	=45	=45	=45
1D_	2r	2a	1f#]	1dd]
.	2.a	2d	.	.
1D_	.	2.f	1r	2r
.	4a	.	.	.
.	2a	.	.	[2dd
.	.	4e	.	.
=46	=46	=46	=46	=46
1D]	2a	1.d	2r	4dd]
.	.	.	.	4dd
.	2d	.	2.a	2dd
1r	2.f	.	.	2dd
.	.	.	4a	.
.	.	2d	2a	2a
.	8e	.	.	.
.	8d	.	.	.
=47	=47	=47	=47	=47
0r	2e	1A	2a	2.cc
.	2c	.	2f	.
.	.	.	.	4b
.	2d	1r	2f	2a
.	2e	.	2e	2g
=48	=48	=48	=48	=48
0r	2f	1r	2d	[0a
.	2.e	.	2c#	.
.	.	1f	1d	.
.	4d	.	.	.
.	[2d	.	.	.
=49	=49	=49	=49	=49
0A	2d]	1e	0a	1a]
.	4c#	.	.	.
.	4B	.	.	.
.	1c#	1A	.	[1ee
=50	=50	=50	=50	=50
1E	1e	2B	1g#	1ee]
.	.	1c	.	.
[1F	1A	.	[1a	1cc
.	.	2A	.	.
=51	=51	=51	=51	=51
2F]	1c	1.a	2a]	1.ff
2E	.	.	2g	.
[1D	[1d	.	2f	.
.	.	2g	2g	2ee
=52	=52	=52	=52	=52
1D]	1d]	1f	1a	1dd
1A	1c#	1e	2a	[1ee
.	.	.	[2a	.
=53	=53	=53	=53	=53
2r	2r	4A	4a]	0ee]
.	.	4B	4a	.
2.A	2.a	4c	2e	.
.	.	4d	.	.
.	.	1e	2cc	.
4A	4a	.	.	.
2E	2g	.	2b	.
=54	=54	=54	=54	=54
2.F	2f	2r	2.a	0r
.	2c	2.a	.	.
4E	.	.	4g	.
2D	2d	.	2f	.
.	.	4a	.	.
2C#	2e	2e	2a	.
=55	=55	=55	=55	=55
4D	2d	1f	1a	0r
4E	.	.	.	.
4F	4c	.	.	.
4G	4B	.	.	.
4A	4c	1e	1a	.
4B	4d	.	.	.
4c	4e	.	.	.
4A	4c	.	.	.
=56	=56	=56	=56	=56
4B	1d	2g	2r	0r
4c	.	.	.	.
1d	.	2f	2.a	.
.	1A	1e	.	.
.	.	.	4a	.
2c#	.	.	2e	.
=57	=57	=57	=57	=57
1d	0a	0d	2.f	2r
.	.	.	.	2.dd
.	.	.	4e	.
1r	.	.	4d	.
.	.	.	4e	4dd
.	.	.	4f	2a
.	.	.	4g	.
=58	=58	=58	=58	=58
0r	2r	0r	4a	2.cc
.	.	.	4b	.
.	2.a	.	1cc	.
.	.	.	.	4b
.	.	.	.	2a
.	4a	.	.	.
.	2e	.	2b	2g#
=59	=59	=59	=59	=59
0r	2.f	2r	1a	2a
.	.	2.a	.	2cc
.	4e	.	.	.
.	2d	.	2r	2dd
.	.	4a	.	.
.	2c#	2e	[2a	2ee
=60	=60	=60	=60	=60
0r	2d	2.f	2a]	4dd
.	.	.	.	4cc
.	2.d	.	2a	4dd
.	.	4e	.	4ee
.	.	2d	1a	2ff
.	4d	.	.	.
.	2A	2c#	.	[2ee
=61	=61	=61	=61	=61
0r	1B-	1d	2f	4ee]
.	.	.	.	4dd
.	.	.	2g	1dd
.	1A	1e	1a	.
.	.	.	.	2cc#
=62	=62	=62	=62	=62
2r	1d	2.f	2.a	1dd
2.d	.	.	.	.
.	.	4e	4a	.
.	2.a	2d	2f	1r
4d	.	.	.	.
2A	.	2e	[2cc	.
.	4a	.	.	.
=63	=63	=63	=63	=63
2.c	1e	2.A	4cc]	0r
.	.	.	4b	.
.	.	.	4a	.
4B	.	4B	4g	.
2A	2f	2c	2a	.
2G#	2e	2B	[2b	.
=64	=64	=64	=64	=64
1A	0e	2.c	4b]	1r
.	.	.	4a	.
.	.	.	1a	.
.	.	4A	.	.
[1E	.	[1B	.	2r
.	.	.	4g#	[2ee
.	.	.	4f#	.
=65	=65	=65	=65	=65
1E]	2r	1B]	1g#	4ee]
.	.	.	.	4ee
.	1e	.	.	2b
2r	.	[1A	[1a	2.cc
[2A	2e	.	.	.
.	.	.	.	4dd
=66	=66	=66	=66	=66
4A]	2c	1A]	1a_	4ee
4A	.	.	.	4cc
2D	2.f	.	.	2dd
2.F	.	2r	1a_	2cc
.	4e	.	.	.
.	4d	[2a	.	[2ff
4E	4c	.	.	.
=67	=67	=67	=67	=67
2D	2d	4a]	1a]	2ff]
.	.	4a	.	.
2C#	2e	2e	.	2.ee
1D	2A	2.f	[1a	.
.	.	.	.	4dd
.	[2a	.	.	[2dd
.	.	8e	.	.
.	.	8d	.	.
=68	=68	=68	=68	=68
1A	4a]	1e	1a_	2dd]
.	4g	.	.	.
.	2e	.	.	2cc#
[1D	[1f#	[1d	1a_	[1dd
=69	=69	=69	=69	=69
1D]	1f#]	1d]	1a]	1dd]
!! Qui tollis
*Ibass	*Itenor	*Itenor	*Icalto	*Icant
!Bassus	!Tenor 2	!Tenor 1	!Altus	!Cantus
*clefF4	*clefGv2	*clefGv2	*clefG2	*clefG2
*k[]	*k[]	*k[]	*k[]	*k[]
*A:aeo	*A:aeo	*A:aeo	*A:aeo	*A:aeo
*M4/2	*M4/2	*M4/2	*M4/2	*M4/2
=70	=70	=70	=70	=70
0r	0r	0r	1d	1r
.	.	.	2.f	1a
.	.	.	4g	.
=71	=71	=71	=71	=71
0r	0r	0r	2a	2cc
.	.	.	2b-	2dd
.	.	.	2g	1ee
.	.	.	2a	.
=72	=72	=72	=72	=72
0r	0r	1r	4d	1ff
.	.	.	4e	.
.	.	.	4f	.
.	.	.	4g	.
.	.	1A	4a	2ee
.	.	.	4b	.
.	.	.	[2cc	[2ee
=73	=73	=73	=73	=73
0r	0r	2c	4cc]	2ee]
.	.	.	4b	.
.	.	2d	1a	4dd
.	.	.	.	4cc
.	.	1e	.	1b
.	.	.	2g#	.
=74	=74	=74	=74	=74
1D	1r	0f	1a	0a
2.F	1A	.	1r	.
4G	.	.	.	.
=75	=75	=75	=75	=75
2A	2c	2e	2r	0r
2B-	2d	2.d	2f	.
2G	1e	.	2g	.
.	.	8c#	.	.
.	.	8B	.	.
2A	.	2c#	2e	.
=76	=76	=76	=76	=76
4D	1f	2d	1a	0r
4E	.	.	.	.
4F	.	4A	.	.
4G	.	4B	.	.
4A	2e	4c	1a	.
4B	.	4d	.	.
2c	[2a	4e	.	.
.	.	4c	.	.
=77	=77	=77	=77	=77
1B	4a]	1d	0r	2.dd
.	8g#	.	.	.
.	8f#	.	.	.
.	2g#	.	.	.
.	.	.	.	4dd
[1A	2.a	1e	.	2cc
.	.	.	.	4a
.	8g	.	.	4b
.	8f	.	.	.
=78	=78	=78	=78	=78
1A]	1e	2r	2.a	4cc
.	.	.	.	4dd
.	.	2.a	.	4ee
.	.	.	4a	4cc
2.d	1r	.	2f	4dd
.	.	4a	.	4ee
.	.	2d	2a	2ff
4d	.	.	.	.
=79	=79	=79	=79	=79
2c	2.a	2e	1cc	4ee
.	.	.	.	4dd
2A	.	2f	.	4cc
.	4a	.	.	4dd
2.c	2g	1e	2cc	4ee
.	.	.	.	4ff
.	2e	.	2g	2gg
4B	.	.	.	.
=80	=80	=80	=80	=80
2A	2f	0r	2a	2cc
2G#	4e	.	2b	1ee
.	4d	.	.	.
1A	4c	.	2cc	.
.	4A	.	.	.
.	2c	.	[2a	2ee
=81	=81	=81	=81	=81
1E	1B	2.e	4a]	1.ee
.	.	.	4g#	.
.	.	.	4g#	.
.	.	4e	8f#	.
.	.	.	8g#	.
1r	2A	2c#	1a	.
.	[2a	2d	.	2ff
=82	=82	=82	=82	=82
1r	2a]	1B	1d	1dd
.	2g#	.	.	.
2r	1a	1A	[1e	2.cc#
2A	.	.	.	.
.	.	.	.	4dd
=83	=83	=83	=83	=83
2.c	1A	1r	1e]	1ee
4B	.	.	.	.
4A	2c	2r	1r	1r
4G	.	.	.	.
2F	2d	2A	.	.
=84	=84	=84	=84	=84
2E	2e	2c	0r	2r
2D	2f	2d	.	2a
2C#	2e	2e	.	1a
2D	[2d	[2f	.	.
=85	=85	=85	=85	=85
1A	2d]	2f]	1r	0a
.	2c	2e	.	.
1D	1f	1d	2r	.
.	.	.	2a	.
=86	=86	=86	=86	=86
1A	2.a	1e	2.cc	2r
.	.	.	.	2a
.	4g	.	4b	.
1r	4f	2r	4a	2cc
.	4e	.	4g	.
.	2d	2a	2f	2dd
=87	=87	=87	=87	=87
0r	2c#	4a	2e	2ee
.	.	4g	.	.
.	2d	4f	2a	1ff
.	.	4e	.	.
.	2f	2d	2a	.
.	2c	2e	2a	2ee
=88	=88	=88	=88	=88
0r	1d	1f	1a	1dd
.	1A	1e	1a	1cc#
=89	=89	=89	=89	=89
1.G	1.d	1.g	1.b	1.dd
2G	2d	2g	2b	2dd
=90	=90	=90	=90	=90
1G	1d	1g	1b	1dd
2.A	2.c#	2.e	2.a	1r
4A	4c#	4e	4a	.
=91	=91	=91	=91	=91
2d	2d	2f#	2a	0r
2D	2d	2f#	2a	.
2G	2d	2g	2b	.
2G	2e	2g	2b	.
=92	=92	=92	=92	=92
1A	1c	2e	1cc	1r
.	.	2f#	.	.
1G	2d	1g	1b	2r
.	[2g	.	.	[2dd
=93	=93	=93	=93	=93
0r	2g]	2.d	2.a	2dd]
.	2f#	.	.	2dd
.	.	4d	4a	.
.	2.g	2g	2b	2dd
.	.	2G	2b	2dd
.	4g	.	.	.
=94	=94	=94	=94	=94
0r	2g	2c	2cc	2ee
.	2a	2c	2cc	2ee
.	1f	1d	2a	1ff
.	.	.	2b	.
=95	=95	=95	=95	=95
1r	2g	1c	0cc	0ee
.	1e	.	.	.
1A	.	1c	.	.
.	2c	.	.	.
=96	=96	=96	=96	=96
2F	2d	2A	1r	0r
2G	1e	2B	.	.
2A	.	2c	2r	.
[2A	2f	[2c	2cc	.
=97	=97	=97	=97	=97
2A]	2e	2c]	2a	0r
2G	1e	2B	2b	.
2F	.	2A	2cc	.
2G	2d	[2B	2b	.
=98	=98	=98	=98	=98
0E	0e	4B]	2g	0r
.	.	8A	.	.
.	.	8B	.	.
.	.	2c	1a	.
.	.	1B	.	.
.	.	.	2g#	.
=99	=99	=99	=99	=99
0r	2r	1A	2a	1ee
.	2e	.	2cc	.
.	2f	1r	2a	2cc
.	2d	.	2b	2dd
=100	=100	=100	=100	=100
0r	2c	0r	2cc	2ee
.	4c	.	1cc	1ee
.	4d	.	.	.
.	4e	.	.	.
.	4f	.	.	.
.	[2g	.	4b	4dd
.	.	.	4a	4cc
=101	=101	=101	=101	=101
0r	4g]	0r	4b	4dd
.	4a	.	4a	4cc
.	2f	.	1a	4cc
.	.	.	.	8b
.	.	.	.	8a
.	1e	.	.	1b
.	.	.	2g#	.
=102	=102	=102	=102	=102
2r	1a	2r	2a	1a
2d	.	1a	2f	.
2c	1r	.	2e	2r
2B	.	2g	2d	[2dd
=103	=103	=103	=103	=103
2.A	2r	2f	1a	2dd]
.	1a	2e	.	2cc#
4G	.	.	.	.
2F	.	4d	1r	2dd
.	.	8c#	.	.
.	.	8B	.	.
2E	2g	2c#	.	2ee
=104	=104	=104	=104	=104
2D	2f	2d	1r	2a
2C#	2e	2e	.	2a
1D	2d	1f	2r	1a
.	2c	.	[2a	.
=105	=105	=105	=105	=105
1E	1B	1e	2a]	1ee
.	.	.	2g	.
1A	1A	2.c	2f	1r
.	.	.	2e	.
.	.	8d	.	.
.	.	8e	.	.
=106	=106	=106	=106	=106
0r	1a	2f	2d	2r
.	.	2e	2c	2ee
.	2r	1a	[1f	2dd
.	2a	.	.	2cc#
=107	=107	=107	=107	=107
0r	2a	1r	2f]	2dd
.	2g	.	2e	2ee
.	2.f	2r	1d	[1a
.	.	2f	.	.
.	4e	.	.	.
=108	=108	=108	=108	=108
0r	2d	2f	2r	1a]
.	2c	2e	2a	.
.	1B	2d	2a	2r
.	.	2d	2g	[2dd
=109	=109	=109	=109	=109
1r	1A	2.a	2f	2dd]
.	.	.	2e	2cc
.	.	4g	.	.
2r	2r	4f	1d	2b
.	.	4e	.	.
2d	2f	2f	.	2a
=110	=110	=110	=110	=110
2c	2e	1g	1r	2cc
2B	1d	.	.	2dd
1A	.	1r	1a	1ee
.	2c	.	.	.
=111	=111	=111	=111	=111
2F	2A	1r	2a	2r
2E	2B	.	2g	2ee
2D	1d	1a	1f	2ff
2d	.	.	.	2dd
=112	=112	=112	=112	=112
2d	1A	2a	2e	2ee
2c#	.	2a	2e	1a
1d	1r	1f	[1a	.
.	.	.	.	[2dd
=113	=113	=113	=113	=113
1r	1A	2e	1a]	2dd]
.	.	2e	.	2cc#
1D	1d	1f	1a	1dd
=114	=114	=114	=114	=114
1A	1.c	1e	2.cc	2ee
.	.	.	.	2a
.	.	.	4b	.
1F	.	1f	1a	1cc
.	[2f	.	.	.
=115	=115	=115	=115	=115
0c	2f]	2g	1g	0cc
.	4e	2c	.	.
.	4d	.	.	.
.	1e	2r	1g	.
.	.	[2c	.	.
=116	=116	=116	=116	=116
1F	2.f	2c]	2r	2.a
.	.	2d	2f	.
.	8e	.	.	4b
.	8d	.	.	.
2r	1c	2e	2g	1cc
2F	.	2f	2a	.
=117	=117	=117	=117	=117
2G	2r	2d	2b-	0r
2A	2c	1f	4a	.
.	.	.	4g	.
2B-	1d	.	2f	.
2B-	.	4e	2g	.
.	.	4d	.	.
=118	=118	=118	=118	=118
1A	2e	2c	2.a	2r
.	1f	2A	.	2cc
.	.	.	4g	.
1r	.	2d	4a	2dd
.	.	.	4b	.
.	2e	2c	[2cc	2ee
=119	=119	=119	=119	=119
1r	1d	2f	2cc]	2ff
.	.	2f	2b	2ff
2r	1c	2g	1cc	2.ee
2A	.	2e	.	.
.	.	.	.	4dd
=120	=120	=120	=120	=120
2A	0r	2e	2a	4cc#
.	.	.	.	4b
4A	.	4e	2a	2cc#
4A	.	4e	.	.
2d	.	2f	4a	1dd
.	.	.	4a	.
2G	.	2d	2b-	.
=121	=121	=121	=121	=121
1c	0r	2.e	2g	2r
.	.	.	2g	2ee
.	.	4d	.	.
1A	.	4c	2a	2ee
.	.	4A	.	.
.	.	[2a	[2cc	4ee
.	.	.	.	4ee
=122	=122	=122	=122	=122
1d	1r	2a]	4cc]	2ff
.	.	.	8b	.
.	.	.	8a	.
.	.	2f	2b	2dd
2.c	2r	1g	1cc	1ee
.	2e	.	.	.
4B	.	.	.	.
=123	=123	=123	=123	=123
1A	2e	1a	2r	1cc
.	4e	.	1a	.
.	4e	.	.	.
1D	2f	1r	.	2dd
.	2d	.	2a	2ff
=124	=124	=124	=124	=124
0r	2e	0r	2g	2ee
.	2c	.	2cc	2ee
.	2d	.	4b	4dd
.	.	.	4a	4cc
.	2f	.	[2a	4b
.	.	.	.	4a
=125	=125	=125	=125	=125
1r	1e	2r	2a]	1b
.	.	2e	2g#	.
2A	2r	2e	1a	1a
2A	2a	4e	.	.
.	.	4e	.	.
=126	=126	=126	=126	=126
4A	2a	2f	1r	0r
4A	.	.	.	.
2B-	4f	2d	.	.
.	4f	.	.	.
2G	2g	1e	2r	.
[2A	2c	.	2a	.
=127	=127	=127	=127	=127
2A]	2e	1c	2a	0r
2F	2f	.	4a	.
.	.	.	4a	.
2G	4e	4g	2b-	.
.	4d	4f	.	.
2B-	[2d	4e	2g	.
.	.	4d	.	.
=128	=128	=128	=128	=128
0A	2d]	1e	1a	2r
.	4c#	.	.	2ee
.	4B	.	.	.
.	1c#	2e	1a	2ee
.	.	2a	.	4ee
.	.	.	.	4ee
=129	=129	=129	=129	=129
1r	2d	2a	4f	2ff
.	.	.	4g	.
.	2d	4f	4a	2dd
.	.	4f	4b	.
2r	2c	2.g	2cc	[1ee
2E	[2e	.	4b	.
.	.	4f	4a	.
=130	=130	=130	=130	=130
2E	4e]	2e	4g	1ee]
.	4f	.	4a	.
4E	2g	2e	2.b	.
4E	.	.	.	.
2F	2f	2c	.	1a
.	.	.	4a	.
2D	2f	2d	[2a	.
=131	=131	=131	=131	=131
0E	1e	0B	2a]	0ee
.	.	.	4g#	.
.	.	.	4f#	.
.	2r	.	1g#	.
.	2e	.	.	.
=132	=132	=132	=132	=132
1A	2e	2A	[0a	2cc#
.	4e	2.e	.	2cc#
.	4e	.	.	.
1D	2f	.	.	2dd
.	.	4d	.	.
.	2d	[2d	.	2ff
=133	=133	=133	=133	=133
2.A	2e	2d]	0a]	1ee
.	2A	2c#	.	.
4G	.	.	.	.
4F	4a	1d	.	[1ff
4E	4g	.	.	.
[2D	4f	.	.	.
.	4e	.	.	.
=134	=134	=134	=134	=134
2D]	2d	1A	[0a	2ff]
2C#	2e	.	.	2ee
1D	1f	1A	.	1dd
=135	=135	=135	=135	=135
0AA	0e	0A	0a]	0cc#
==	==	==	==	==
*-	*-	*-	*-	*-
!!!CDT: 1525/^1526/-1594/2/2
!!!OCY: Italia
!!!AGN: Mass (Parody)
!!!AST: renaissance, vocal
!!!ASW: Madrigal 1566 (Palestrina)
!!!PWK: Masses, Book 9
!!!RNB: Cadence finals: D
!!!YOR: Le Opere Complete, v. 25, p. 54
!!!YOO: Rome, Italy: Fratelli Scalera
!!!END: 1992//
!!!EED: John Miller
!!!YEC: Copyright 2000, John Miller
!!!YEN: United States of America
!!!YEM: Rights to all derivative electronic formats reserved.
!!!YEM: Refer to licensing agreement for further details.
!!!YEM: This file must be accompanied by the licensing agreement.
!!!YEM: A copy of the licensing agreement may be found at http://www.music-cog.ohio-state.edu/HumdrumDatabases/Palestrina/license.txt
!!!EMD: converted to Humdrum by Bret Aarden
